X:1
T:Title
%%score { ( 1 3 ) | ( 2 4 ) }
L:1/8
M:3/4
K:G
V:1 treble nm="Grand Piano"
V:3 treble 
V:2 bass 
V:4 bass 
V:1
 z2 z2[Q:1/4=92] [FAd]2 | [GBd][DGB] [B,DG]2 [CFA]>B | [B,D][B,DG] [DGB]2 [Ec]>[DB] | z A, A,A BA | %4
[M:2/4] G2 z2 |[M:1/4] B>c |[M:3/4] [DBd][DGB] [B,DG]2 [CFA]>B | [B,D][B,DG] [DGB]2 [Ec]>[DB] | %8
 A4 z2 |[M:2/4] [B,G]4 |[M:1/4] [A,DF]>[B,DG] |[M:3/4] [CFA][A,DF] [F,D]2 [G,DG]>[DA] | %12
 [DB]G z A, GB | A3 B/A/ ^GA |[M:5/8] d-[Gd-] [Ad]3 |[M:1/4] B>B | %16
[M:3/4] [B,DGB][^DAB]/[DAB]/ [EGB]2 G>A | [EGB][DFB]/[DFB]/ [EGB]2 [EB]>[Gc] | %18
 d-[Gd-] dB/G/ D.[CFB] |[M:2/4] [B,G]4 |[M:1/4] z2 |[M:3/4] [DGB][^DAB]/[DAB]/ [B,EGB]2 G>A | %22
 [B,EGB][B,DFB]/[FB]/ [B,EGB]2 [EB]>[Gc] | d-[Gd-] dB/G/ D.[CFB] |[M:3/8] [B,G]3 | D[G,DG][DB] | %26
[M:3/4] [DA]4[K:bass][K:treble] z2 | G4 z2 | A2 [Fd]2 [Gd]>[Fd] |[M:2/4] [Gd]4 |] %30
V:2
 z2 z2 [D,,D,]2 | [G,,D,G,][G,,D,G,] .[G,,G,]2 .[G,,G,]>[DF] | %2
 [G,,D,G,][G,,D,G,] .[G,,G,]2 .[G,,G,]2 | [D,,D,][D,F,] [D,F,]C [D,F,D]C | %4
[M:2/4] [G,,D,G,][G,,D,] [G,,D,G,]2 |[M:1/4][K:treble] G>A | %6
[M:3/4][K:bass] [G,,D,G,][G,,D,G,] .[G,,G,]2 .[G,,G,]>[DF] | %7
 [G,,D,G,][G,,D,G,] .[G,,G,]2 .[G,,G,]2 | [D,,D,]D, [D,F,][K:treble]B/A/[K:bass] D,[D,CD] | %9
[M:2/4] G,D, G,,2 |[M:1/4] D,>D, |[M:3/4] D,D, D,C, B,,>[A,,F,] | [G,,G,][D,B,D] [G,B,]F, G,B, | %13
 A,3 B,/A,/ ^G,A, |[M:5/8] A,B, C3 |[M:1/4] [B,,B,]>[B,,B,] |[M:3/4] [G,,G,][F,,F,] [E,,E,]2 z2 | %17
 [E,,E,][B,,,B,,] [E,,E,]2 [E,G,]>[^D,A,] | [D,B,D][D,B,D] [D,B,D]2 .D,>A |[M:2/4] z D, G,2 | %20
[M:1/4][K:treble] B>B |[M:3/4][K:bass] [G,,G,][F,,F,] [E,,E,]2 z2 | %22
 .[E,,E,]>[B,D] [E,,E,]2 [E,G,]>[^D,A,] | [D,B,D][D,B,D] [D,B,D]2 .D,>A |[M:3/8] z D,G, | %25
 D,B,,[G,,G,] |[M:3/4] [D,F,]D, D,D, D,D, | z D, D,D, G,B, | A,2 [D,C]2 [D,B,]>[D,A,] | %29
[M:2/4] [G,B,]4 |] %30
V:3
 x6 | x6 | x6 | [CA]4 z2 |[M:2/4] B,-[G,B,-] [B,D]2 |[M:1/4] x2 |[M:3/4] x6 | x6 | %8
 C-[F,C] C2 D[Fd] |[M:2/4] x4 |[M:1/4] x2 |[M:3/4] x6 | z2 D2 z2 | x6 |[M:5/8] F z z z2 | %15
[M:1/4] x2 |[M:3/4] x6 | x6 | .G2 G2 z2 |[M:2/4] .G,2 z2 |[M:1/4] x2 |[M:3/4] x6 | x6 | .G2 G2 z2 | %24
[M:3/8] G, z z | x3 |[M:3/4] z[K:bass] F, F,[F,D][K:treble] [A,DF][CFA] | B,-[G,B,] G,D GB | x6 | %29
[M:2/4] x4 |] %30
V:4
 x6 | x6 | x6 | x6 |[M:2/4] x4 |[M:1/4][K:treble] x2 |[M:3/4][K:bass] x6 | x6 | %8
 x3[K:treble] x[K:bass] x2 |[M:2/4] x4 |[M:1/4] x2 |[M:3/4] x6 | x6 | x6 |[M:5/8] D,-D,- D,3 | %15
[M:1/4] x2 |[M:3/4] x6 | x6 | z2 z2 z [D,,D,] |[M:2/4] G,,4 |[M:1/4][K:treble] x2 | %21
[M:3/4][K:bass] x6 | z [B,,,B,,] z2 z2 | z2 z2 z [D,,D,] |[M:3/8] G,,3 | x3 |[M:3/4] x6 | %27
 G,,2 z2 z2 | x6 |[M:2/4] x4 |] %30

